X:7
T:Sanctus
C:P. Daniel
H:Christus Vincit
M:C|
L:1/4
K:D
"Re"F2F2|"La"A4|"Sim"D2D2|"Re"F4|"Sol"B2"La"E2|"Fa#m"A2"Sol"DG|"La"F2E2|"Re"D4|
|:FFFF|AAAA|D2DD|F2F2|B2E2|A2DG|F2E2|"FIN"D4:|
